X:1
T:Jesus Loves Us
T:Jesus Loves Us
T:Charles Hutchinson Gabriel
T:Nannie Bell Carper Kreps, 1897
T:Public Domain Courtesy of the Cyber Hymnal™
C:Charles Hutchinson Gabriel
Z:Public Domain
Z:Courtesy of the Cyber Hymnal™
%%score ( 1 2 ) ( 3 4 )
L:1/8
Q:1/4=75
M:2/4
K:E
V:1 treble 
V:2 treble 
V:3 bass 
V:4 bass 
V:1
 [EG][EB] [EB][Ec] | [EG][EG] (G/F/)[B,E] | [DF][DF] ([DF]/[EG]/)[FA] | [EG][Ec] [EB]2 | %4
w: 1.~Je- sus loves the|lit- tle child- * ren,|And though sin- * ful|I may be,|
w: 2.~Oh, I want to|be like Je- * sus,|Meek and gen- * tle,|pure and mild;|
w: 3.~If I try to|serve and praise * Him,|He will send * an|an- gel band|
 [EG][EB] [EB][Ec] | [EG][EG] (G/F/)[B,E] | [DF]/[EG]/[FA] [EG][DF] | E3 z || %8
w: Yet He calls me,|sweet- ly calls * me,|“Lit- tle one, come to|Me.”|
w: Soft- ly speak- ing,|help- ing o- * thers,|Just as a lit- tle|child.|
w: To pro- tect and|guide me ev- * er,|Hold- ing me by the|hand.|
"^Refrain" [Ec][Ec] (c/d/)[Ae] | [Ge]2 [GB][EG] | [FB]2 [DF][Ac] | [GB]2 (z/ E/G/B/) | %12
w: ||||
w: Je- sus dear- * ly|loves us, He|loves us, He|loves * * *|
w: ||||
 [Ec][Ec] (c/d/)[Ae] | [Ge]2 [GB][EG] | [GB][FA] [EG][DF] | E4 |] %16
w: ||||
w: * us, Je- * sus|dear- ly loves|us, The Bi- ble|tells|
w: ||||
V:2
 x4 | x2 E x | x4 | x4 | x4 | x2 E x | x4 | E3 x || x2 E x | x4 | x4 | x2 [EG] x | x2 E x | x4 | %14
 x4 | E4 |] %16
V:3
 [E,B,][E,G,] [E,G,][E,G,] | [E,B,][E,B,] (B,/A,/)[E,G,] | [B,,B,][B,,B,] [B,,B,][B,,B,] | %3
 [E,B,][E,A,] [E,G,]2 | [E,B,][E,G,] [E,G,][E,A,] | [E,B,][E,B,] (B,/A,/)[E,G,] | %6
 [B,,B,]/[B,,B,]/[B,,B,] [B,,B,][B,,B,] | [E,G,]3 z || A,A, (A,/B,/)[A,C] | [E,B,]2 [E,E][E,B,] | %10
 [B,,D]2 [B,,B,][B,,D] | [E,E]2 [E,B,] z | A,A, (A,/B,/)[A,C] | [E,B,]2 [E,E][E,B,] | %14
 [B,,B,][B,,B,] [B,,B,][B,,B,] | [E,G,]4 |] %16
V:4
 x4 | x2 E, x | x4 | x4 | x4 | x2 E, x | x4 | x4 || A,A, A, x | x4 | x4 | x4 | A,A, A, x | x4 | %14
 x4 | x4 |] %16

